images/流程图/u78_seg2.svg

<svg xmlns="http://www.w3.org/2000/svg" width="43" height="10" preserveAspectRatio="xMinYMid meet" viewBox="82 580 43 8"><defs><mask id="a" fill="#fff"><path fill-rule="evenodd" d="M70 696h34v28H70Zm0-122h65v266H70Z"/></mask></defs><path fill="none" stroke="#d9001b" stroke-width="2" d="M125 837H92a5 5 0 0 1-5-5V589a5 5 0 0 1 5-5h27" mask="url(#a)"/><path fill="#d9001b" d="m118 591.6 7-7.6-7-7.6z" mask="url(#a)"/></svg>

﻿<?xml version="1.0" encoding="utf-8"?>
<svg version="1.1" xmlns:xlink="http://www.w3.org/1999/xlink" width="43px" height="10px" preserveAspectRatio="xMinYMid meet" viewBox="82 580  43 8" xmlns="http://www.w3.org/2000/svg">
  <defs>
    <mask fill="white" id="clip16">
      <path d="M 70 696  L 104 696  L 104 724  L 70 724  Z M 70 574  L 135 574  L 135 840  L 70 840  Z " fill-rule="evenodd" />
    </mask>
  </defs>
  <path d="M 125 837  L 92 837  A 5 5 0 0 1 87 832 L 87 589  A 5 5 0 0 1 92 584 L 119 584  " stroke-width="2" stroke="#d9001b" fill="none" mask="url(#clip16)" />
  <path d="M 118 591.6  L 125 584  L 118 576.4  L 118 591.6  Z " fill-rule="nonzero" fill="#d9001b" stroke="none" mask="url(#clip16)" />
</svg>
